packages/katcn/src/icons/svg/load-solid.svg

<svg width="24" height="25" viewBox="0 0 24 25" fill="none" xmlns="http://www.w3.org/2000/svg">
<path d="M12 2.31201C11.2 2.31201 10.6 2.91201 10.6 3.71201V6.01201C10.6 6.81201 11.2 7.41201 12 7.41201C12.8 7.41201 13.4 6.81201 13.4 6.01201V3.71201C13.4 2.91201 12.8 2.31201 12 2.31201Z" fill="black"/>
<path d="M6.59995 8.91201C6.89995 9.21201 7.19995 9.31201 7.59995 9.31201C7.99995 9.31201 8.29995 9.21201 8.59995 8.91201C9.19995 8.31201 9.19995 7.41201 8.59995 6.91201L6.89995 5.21201C6.29995 4.61201 5.39995 4.61201 4.89995 5.21201C4.29995 5.81201 4.29995 6.71201 4.89995 7.21201L6.59995 8.91201Z" fill="black"/>
<path d="M7.2 12.312C7.2 11.512 6.6 10.912 5.8 10.912H3.4C2.6 10.912 2 11.512 2 12.312C2 13.112 2.6 13.712 3.4 13.712H5.7C6.6 13.712 7.2 13.112 7.2 12.312Z" fill="black"/>
<path d="M6.59995 15.712L4.89995 17.412C4.29995 18.012 4.29995 18.912 4.89995 19.412C5.19995 19.712 5.49995 19.812 5.89995 19.812C6.29995 19.812 6.59995 19.712 6.89995 19.412L8.59995 17.712C9.19995 17.112 9.19995 16.212 8.59995 15.712C7.99995 15.112 7.09995 15.112 6.59995 15.712Z" fill="black"/>
<path d="M12 17.112C11.2 17.112 10.6 17.712 10.6 18.512V20.812C10.6 21.612 11.2 22.212 12 22.212C12.8 22.212 13.4 21.612 13.4 20.812V18.512C13.4 17.712 12.8 17.112 12 17.112Z" fill="black"/>
<path d="M17.4 15.712C16.8 15.112 15.9 15.112 15.4 15.712C14.9 16.312 14.8 17.212 15.4 17.712L17.1 19.412C17.4 19.712 17.7 19.812 18.1 19.812C18.5 19.812 18.8 19.712 19.1 19.412C19.7 18.812 19.7 17.912 19.1 17.412L17.4 15.712Z" fill="black"/>
<path d="M20.6 10.912H18.3C17.5 10.912 16.9 11.512 16.9 12.312C16.9 13.112 17.5 13.712 18.3 13.712H20.6C21.4 13.712 22 13.112 22 12.312C22 11.512 21.4 10.912 20.6 10.912Z" fill="black"/>
<path d="M16.4 9.31201C16.8 9.31201 17.1 9.21201 17.4 8.91201L19.1 7.21201C19.7 6.61201 19.7 5.71201 19.1 5.21201C18.5 4.61201 17.6 4.61201 17.1 5.21201L15.4 6.91201C14.8 7.51201 14.8 8.41201 15.4 8.91201C15.7 9.21201 16 9.31201 16.4 9.31201Z" fill="black"/>
</svg>

<svg xmlns="http://www.w3.org/2000/svg" fill="none" viewBox="0 0 24 25"><path fill="#000" d="M12 2.312c-.8 0-1.4.6-1.4 1.4v2.3c0 .8.6 1.4 1.4 1.4s1.4-.6 1.4-1.4v-2.3c0-.8-.6-1.4-1.4-1.4m-5.4 6.6c.3.3.6.4 1 .4s.7-.1 1-.4c.6-.6.6-1.5 0-2l-1.7-1.7c-.6-.6-1.5-.6-2 0-.6.6-.6 1.5 0 2zm.6 3.4c0-.8-.6-1.4-1.4-1.4H3.4c-.8 0-1.4.6-1.4 1.4s.6 1.4 1.4 1.4h2.3c.9 0 1.5-.6 1.5-1.4m-.6 3.4-1.7 1.7c-.6.6-.6 1.5 0 2 .3.3.6.4 1 .4s.7-.1 1-.4l1.7-1.7c.6-.6.6-1.5 0-2-.6-.6-1.5-.6-2 0m5.4 1.4c-.8 0-1.4.6-1.4 1.4v2.3c0 .8.6 1.4 1.4 1.4s1.4-.6 1.4-1.4v-2.3c0-.8-.6-1.4-1.4-1.4m5.4-1.4c-.6-.6-1.5-.6-2 0s-.6 1.5 0 2l1.7 1.7c.3.3.6.4 1 .4s.7-.1 1-.4c.6-.6.6-1.5 0-2zm3.2-4.8h-2.3c-.8 0-1.4.6-1.4 1.4s.6 1.4 1.4 1.4h2.3c.8 0 1.4-.6 1.4-1.4s-.6-1.4-1.4-1.4m-4.2-1.6c.4 0 .7-.1 1-.4l1.7-1.7c.6-.6.6-1.5 0-2-.6-.6-1.5-.6-2 0l-1.7 1.7c-.6.6-.6 1.5 0 2 .3.3.6.4 1 .4"/></svg>
